X:3
T:Gavotte 3
C:Michael Praetorius
M:C|
L:1/4
K:G
|: G A B B | c A B B | G A B d | c2 B2 :|
|: d2 d2 | d/c/ B/A/ B G | d2 d2 | d/c/ B/A/ G2 :|
